X:1
T:The Girl with the Flaxen Hair
C:Claude Debussy
M:3/4
L:1/4
Q:1/4=66
K:Gb
d | B A G | A B d | B A G | G3 | A B d | d2 B | A G A | B3 | G A B | d2 B | A2 G | G3 |]
